Papirus/24x24/panel/mullvadr.svg

<?xml version="1.0" encoding="UTF-8" standalone="no"?>
<svg xmlns:dc="http://purl.org/dc/elements/1.1/" xmlns:cc="http://creativecommons.org/ns#" xmlns:rdf="http://www.w3.org/1999/02/22-rdf-syntax-ns#" xmlns:svg="http://www.w3.org/2000/svg" xmlns="http://www.w3.org/2000/svg" width="24" height="24" viewBox="0 0 24 24" id="svg4437" version="1.1">
    <metadata id="metadata4442">
        <rdf:RDF>
            <cc:Work rdf:about="">
                <dc:format>
                    image/svg+xml
                </dc:format>
                <dc:type rdf:resource="http://purl.org/dc/dcmitype/StillImage"/>
                <dc:title/>
            </cc:Work>
        </rdf:RDF>
    </metadata>
    <path id="path4150" d="m 10,4 a 8,8 0 0 0 -8,8 8,8 0 0 0 8,8 8,8 0 0 0 4.730469,-1.558594 l 0.976562,-0.976562 -1.414062,-1.414063 a 1.0001,1.0001 0 0 1 0,-1.414062 l 1.414062,-1.414063 a 1.0001,1.0001 0 0 1 0.691407,-0.292968 1.0001,1.0001 0 0 1 0.722656,0.292968 l 0.648437,0.648438 A 8,8 0 0 0 18,12 8,8 0 0 0 10,4 Z M 8,7 C 8.6025795,7 9.262517,7.065035 9.828125,7.25 10.110929,7.342482 10.37461,7.4629971 10.597656,7.6582031 10.688293,7.7375261 10.694504,7.889048 10.761719,8 L 11.5,8 A 0.50005,0.50005 0 0 1 12,8.5 L 12,9 c 0.201709,0.0034 0.317441,0.01032 1.201172,0 0.375405,-0.0044 0.605892,-0.0015 0.886719,0 A 1.5,1.5 0 0 1 15.5,8 1.5,1.5 0 0 1 17,9.5 1.5,1.5 0 0 1 15.5,11 1.5,1.5 0 0 1 15.339844,10.9902 c -0.695264,0.86351 -1.64074,1.557281 -2.345703,2.228516 L 13,13.488281 A 0.50005,0.50005 0 0 1 12.494141,14 c -0.447455,-0.005 -0.500792,0.09157 -0.484375,0.06445 0.01642,-0.02712 -0.01692,0.08725 0.07813,0.341797 0.09502,0.254545 0.274647,0.587668 0.453125,0.927734 0.178476,0.340067 0.359292,0.681343 0.445312,1.052735 A 0.50005,0.50005 0 0 1 12.5,17 l -3,0 A 0.50005,0.50005 0 0 1 9.49609,17 C 8.1703567,16.9916 5.5019531,17 5.5019531,17 A 0.50005,0.50005 0 0 1 5.1035156,16.195312 c 0.276418,-0.360367 0.5351006,-1.042347 0.7167969,-1.753906 0.1305825,-0.511385 0.2220731,-1.009858 0.2988281,-1.460937 -0.069978,-0.01316 -0.140993,-0.0334 -0.21875,-0.07422 -0.1625915,-0.08535 -0.339144,-0.341161 -0.328125,-0.5625 0.00734,-0.147866 0.024027,-0.140523 0.029297,-0.160156 0.00527,-0.01963 0.00668,-0.02958 0.00781,-0.03711 l 0,-0.002 C 5.1903522,11.558545 5,10.782717 5,10.09375 5,9.216324 5.4156404,8.445368 5.9804688,7.8984375 6.5452965,7.3515072 7.2655964,7 8,7 Z M 8,8 C 7.6082157,8 7.0794062,8.2263515 6.6757812,8.6171875 6.2721563,9.008022 6,9.535235 6,10.09375 c 0,0.500949 0.2256771,1.248494 0.4648438,1.544922 a 0.50005,0.50005 0 0 1 0.078125,0.132812 c 0.026749,0.06855 0.00904,0.11503 0.019531,0.179688 0.1365714,-0.01873 0.2684796,-0.03164 0.5566406,-0.123047 0.3416911,-0.134986 0.6431403,-0.284758 0.9257813,-0.441406 0.096165,-0.05328 0.1893679,-0.117168 0.2851562,-0.175781 C 8.5396408,11.079287 8.7412967,10.943863 8.9160156,10.796875 9.2369592,10.506818 9.5008629,10.1494 9.7792969,9.800781 9.8757469,9.641269 9.9655175,9.478326 10.039062,9.304688 A 0.50005,0.50005 0 0 1 10.5,9 0.50005,0.50005 0 0 1 10,8.5 C 10,8.47285 10.0072,8.4711862 9.9375,8.4101562 9.86777,8.3491262 9.7190001,8.2670409 9.5175781,8.2011719 9.1147341,8.0694339 8.5236084,8 8,8 Z m 3.583984,2 a 0.50005,0.50005 0 0 1 -0.08789,0.0078 l -0.511719,-0.0039 c -0.08638,0.05179 -0.194727,0.140785 -0.333984,0.30859 -0.312391,0.376431 -0.6995144,1.007161 -1.3750004,1.488281 -0.6309969,0.449432 -1.1564081,0.688081 -1.5703125,0.853516 -0.08,0.03439 -0.145775,0.07877 -0.2285156,0.111328 a 0.50005,0.50005 0 0 1 -0.029297,0.0098 c -0.066457,0.02146 -0.1125201,0.02862 -0.1738281,0.04687 -0.028972,0.01 -0.1081351,0.04356 -0.1289063,0.05078 -0.08294,0.51071 -0.1825115,1.139043 -0.3554687,1.816406 C 6.6671582,15.166805 6.4333954,15.569318 6.2363281,16 c 0.69102,-0.0018 2.175881,-0.0069 3.2675781,0 l 2.2402348,0 c -0.03796,-0.07708 -0.04534,-0.120092 -0.08789,-0.201172 -0.172413,-0.328513 -0.368826,-0.68113 -0.503906,-1.042969 -0.135087,-0.361839 -0.250394,-0.792252 0.002,-1.208984 0.156434,-0.258437 0.526096,-0.264344 0.837891,-0.339844 l -0.0039,-0.195312 a 0.50005,0.50005 0 0 1 0.146485,-0.365235 c 0.761806,-0.764449 1.616435,-1.477347 2.222656,-2.177734 A 1.5,1.5 0 0 1 14.087891,10 c -0.279424,-0.0015 -0.519678,-0.0041 -0.875,0 -1.178653,0.01376 -1.578079,0.0014 -1.628907,0 z M 16.414062,13.929688 15,15.34375 17.121094,17.464844 15,19.585938 16.414062,21 18.535156,18.878906 20.65625,21 22.070312,19.585938 19.949219,17.464844 22.070312,15.34375 20.65625,13.929688 18.535156,16.050781 16.414062,13.929688 Z" style="opacity:1;fill:#ffffff;fill-opacity:1;stroke:none;stroke-width:2;stroke-linecap:round;stroke-linejoin:round;stroke-miterlimit:4;stroke-dasharray:none;stroke-opacity:1"/>
</svg>

<?xml version="1.0" encoding="UTF-8" standalone="no"?>
<svg id="svg4437" xmlns:rdf="http://www.w3.org/1999/02/22-rdf-syntax-ns#" xmlns="http://www.w3.org/2000/svg" height="24" width="24" version="1.1" xmlns:cc="http://creativecommons.org/ns#" viewBox="0 0 24 24" xmlns:dc="http://purl.org/dc/elements/1.1/">
 <metadata id="metadata4442">
  <rdf:RDF>
   <cc:Work rdf:about="">
    <dc:format>image/svg+xml</dc:format>
    <dc:type rdf:resource="http://purl.org/dc/dcmitype/StillImage"/>
    <dc:title/>
   </cc:Work>
  </rdf:RDF>
 </metadata>
 <path id="path4150" d="m10 4a8 8 0 0 0 -8 8 8 8 0 0 0 8 8 8 8 0 0 0 4.7305 -1.5586l0.97656-0.97656-1.4141-1.4141a1.0001 1.0001 0 0 1 0 -1.4141l1.4141-1.4141a1.0001 1.0001 0 0 1 0.69141 -0.29297 1.0001 1.0001 0 0 1 0.72266 0.29297l0.64844 0.64844a8 8 0 0 0 0.232 -1.87 8 8 0 0 0 -8 -8zm-2 3c0.6026 0 1.2625 0.065 1.8281 0.25 0.2829 0.0925 0.5469 0.213 0.7699 0.4082 0.09 0.0793 0.097 0.2308 0.164 0.3418h0.738a0.50005 0.50005 0 0 1 0.5 0.5v0.5c0.20171 0.0034 0.31744 0.01032 1.2012 0 0.3754-0.0044 0.60589-0.0015 0.88672 0a1.5 1.5 0 0 1 1.412 -1 1.5 1.5 0 0 1 1.5 1.5 1.5 1.5 0 0 1 -1.5 1.5 1.5 1.5 0 0 1 -0.16 -0.01c-0.69526 0.86351-1.6407 1.5573-2.3457 2.2285l0.006 0.27a0.50005 0.50005 0 0 1 -0.506 0.512c-0.44746-0.005-0.50079 0.09157-0.48438 0.06445 0.01642-0.02712-0.01692 0.08725 0.07813 0.3418 0.09502 0.25454 0.27465 0.58767 0.45312 0.92773 0.17848 0.34007 0.35929 0.68134 0.44531 1.0527a0.50005 0.50005 0 0 1 -0.486 0.613h-3a0.50005 0.50005 0 0 1 -0.0039 0c-1.3257-0.008-3.9941 0-3.9941 0a0.50005 0.50005 0 0 1 -0.3985 -0.805c0.27642-0.36037 0.5351-1.0423 0.7168-1.7539 0.13058-0.51138 0.22207-1.0099 0.29883-1.4609-0.069978-0.01316-0.14099-0.0334-0.21875-0.07422-0.16259-0.08535-0.33914-0.34116-0.32812-0.5625 0.00734-0.14787 0.024027-0.14052 0.029297-0.16016 0.00527-0.01963 0.00668-0.02958 0.00781-0.03711v-0.002c-0.4189-0.585-0.6093-1.361-0.6093-2.05 0-0.8777 0.4156-1.6486 0.9805-2.1956 0.5648-0.5469 1.2851-0.8984 2.0195-0.8984zm0 1c-0.3918 0-0.9206 0.2264-1.3242 0.6172s-0.6758 0.918-0.6758 1.4768c0 0.50095 0.22568 1.2485 0.46484 1.5449a0.50005 0.50005 0 0 1 0.078125 0.13281c0.026749 0.06855 0.00904 0.11503 0.019531 0.17969 0.13657-0.01873 0.26848-0.03164 0.55664-0.12305 0.34169-0.13499 0.64314-0.28476 0.92578-0.44141 0.096165-0.05328 0.18937-0.11717 0.28516-0.17578 0.2095-0.132 0.4112-0.267 0.5859-0.414 0.321-0.29 0.5849-0.648 0.8633-0.9962 0.0964-0.1595 0.1862-0.3225 0.2597-0.4961a0.50005 0.50005 0 0 1 0.461 -0.3047 0.50005 0.50005 0 0 1 -0.5 -0.5c0-0.0272 0.007-0.0288-0.0625-0.0898-0.0697-0.0611-0.2185-0.1432-0.4199-0.209-0.4029-0.1318-0.994-0.2012-1.5176-0.2012zm3.584 2a0.50005 0.50005 0 0 1 -0.08789 0.0078l-0.51172-0.0039c-0.08638 0.05179-0.19473 0.14078-0.33398 0.30859-0.31239 0.37643-0.69951 1.0072-1.375 1.4883-0.631 0.44943-1.1564 0.68808-1.5703 0.85352-0.08 0.03439-0.14578 0.07877-0.22852 0.11133a0.50005 0.50005 0 0 1 -0.029297 0.0098c-0.066457 0.02146-0.11252 0.02862-0.17383 0.04687-0.028972 0.01-0.10814 0.04356-0.12891 0.05078-0.08294 0.51071-0.18251 1.139-0.35547 1.8164-0.1215 0.477-0.3553 0.879-0.5524 1.31 0.69102-0.0018 2.1759-0.0069 3.2676 0h2.2402c-0.03796-0.07708-0.04534-0.12009-0.08789-0.20117-0.17241-0.32851-0.36883-0.68113-0.50391-1.043-0.13509-0.36184-0.25039-0.79225 0.002-1.209 0.15643-0.25844 0.5261-0.26434 0.83789-0.33984l-0.0039-0.19531a0.50005 0.50005 0 0 1 0.14648 -0.36524c0.76181-0.76445 1.6164-1.4773 2.2227-2.1777a1.5 1.5 0 0 1 -0.269 -0.469c-0.27942-0.0015-0.51968-0.0041-0.875 0-1.1787 0.01376-1.5781 0.0014-1.6289 0zm4.83 3.93-1.414 1.414 2.121 2.121-2.121 2.121 1.414 1.414 2.121-2.121 2.121 2.121 1.414-1.414-2.121-2.121 2.121-2.121-1.414-1.414-2.121 2.121-2.121-2.121z" fill="#fff"/>
</svg>
